X: 64
T: Maicai
L: 1/16
M: 3/4
K: F
d2 d f d2 c d [I:setbarnb 1]| 
f2 d Ac8 | 
[M:2/4]d2 d c A2 A c | 
[M:3/4]d f c AG8 | 
[M:2/4]G2 G F G2 G A | 
c2 c A2< c2 d | 
F G E DC4 | 
d2 d c2< A2 c | 
G2 F D F G A D | 
C8 |]

@@@ Tune index: 8938
